X:160
T: FRAU DU SOLLST ZU HAUSE KOMMN
N: Z0159
O: Europa, Mitteleuropa, Deutschland
R: Erzaehlung, lustige Romanze
M: 3/4
L: 1/16
K: G
 | D2G2G4G4 | F2A2A4z3
D | A4G4A4 | B4z8 |
D2A2A4z4 | G2d2d4
d2c2 | B2A2G2F2E2E2 | E4z4
D2D2 | D4E2F2G2A2 | G4z4
d2c2 | B2A2G2F2E2E2 | E4z4
D2D2 | D4E2F2G2A2 | G4z8

@@@ Tune index: 9918
